public/img/participation-1.svg

<svg width="112" height="96" viewBox="0 0 112 96" fill="none" xmlns="http://www.w3.org/2000/svg">
<path d="M105.333 10H38.6667C35.0333 10.1333 32.1333 13.0333 32 16.6667V63.3333C32.1333 66.9667 35.0333 69.8667 38.6667 70H105.333C108.967 69.8667 111.867 66.9667 112 63.3333V16.6667C111.939 14.9181 111.217 13.2578 109.979 12.0206C108.742 10.7834 107.082 10.0614 105.333 10ZM105.333 63.3333H38.6667V16.6667H105.333V63.3333ZM78.6667 56.6667V52.5C78.6667 46.9667 67.5333 44.1667 62 44.1667C56.4667 44.1667 45.3333 46.9667 45.3333 52.5V56.6667H78.6667ZM62 23.3333C59.7899 23.3333 57.6702 24.2113 56.1074 25.7741C54.5446 27.3369 53.6667 29.4565 53.6667 31.6667C53.6667 32.761 53.8822 33.8446 54.301 34.8557C54.7198 35.8667 55.3336 36.7854 56.1074 37.5592C57.6702 39.122 59.7899 40 62 40C63.0943 40 64.178 39.7845 65.189 39.3657C66.2001 38.9469 67.1187 38.333 67.8926 37.5592C68.6664 36.7854 69.2802 35.8667 69.699 34.8557C70.1178 33.8446 70.3333 32.761 70.3333 31.6667C70.3333 30.5723 70.1178 29.4887 69.699 28.4776C69.2802 27.4666 68.6664 26.5479 67.8926 25.7741C67.1187 25.0003 66.2001 24.3865 65.189 23.9677C64.178 23.5489 63.0943 23.3333 62 23.3333ZM78.6667 23.3333V26.6667H98.6667V23.3333H78.6667ZM78.6667 30V33.3333H98.6667V30H78.6667ZM78.6667 36.6667V40H92V36.6667H78.6667Z" fill="#FFD100"/>
<path d="M64 87.1551L63.9645 87.125L64 87.0849L63.0984 86.3221L56.7921 80.5215C56.7921 80.5215 56.6807 80.6369 56.4983 80.8075L56.3311 80.9882C54.8926 82.3179 50.2832 86.1666 44.8735 86.2419C44.757 86.2419 44.6404 86.2419 44.5239 86.2419C41.6772 85.9358 38.9015 84.4204 36.0852 81.6154C31.4099 76.9388 26.2078 74.4148 20.6107 74.0786C20.4537 74.0786 20.2966 74.0786 20.1447 74.0786C19.3027 74.0046 18.4568 73.9828 17.612 74.0133C9.18338 74.3546 2.92268 79.9545 0.795251 82.1122C0.339375 82.5186 0.0658488 82.8096 0.00506529 82.8598L0.0354571 82.8899C0.0262093 82.9068 0.0142314 82.9221 0 82.9351L0.901623 83.6878L7.20792 89.4934L7.5017 89.2024L7.66886 89.0217C9.10233 87.687 13.7168 83.8383 19.1266 83.7681C19.2431 83.7681 19.3545 83.7681 19.471 83.7681C22.3228 84.0741 25.0935 85.5895 27.9098 88.3945C32.5901 93.0511 37.782 95.5751 43.3792 95.9213C43.5311 95.9213 43.6882 95.9213 43.8452 95.9213C44.6872 95.9955 45.5331 96.0172 46.3778 95.9865C54.8065 95.6453 61.0672 90.0504 63.1946 87.8927C63.6353 87.4712 63.9139 87.1852 63.9696 87.125" fill="#EFC825"/>
</svg>

<svg width="112" height="96" fill="none" xmlns="http://www.w3.org/2000/svg"><path d="M105.333 10H38.667A6.914 6.914 0 0032 16.667v46.666A6.914 6.914 0 0038.667 70h66.666A6.914 6.914 0 00112 63.333V16.667A6.912 6.912 0 00105.333 10zm0 53.333H38.667V16.667h66.666v46.666zm-26.666-6.666V52.5c0-5.533-11.134-8.333-16.667-8.333-5.533 0-16.667 2.8-16.667 8.333v4.167h33.334zM62 23.333A8.334 8.334 0 1062 40a8.334 8.334 0 000-16.667zm16.667 0v3.334h20v-3.334h-20zm0 6.667v3.333h20V30h-20zm0 6.667V40H92v-3.333H78.667z" fill="#FFD100"/><path d="M64 87.155l-.035-.03.035-.04-.902-.763-6.306-5.8s-.111.115-.294.285l-.167.181c-1.438 1.33-6.048 5.179-11.458 5.254h-.35c-2.846-.306-5.622-1.822-8.438-4.627-4.675-4.676-9.877-7.2-15.474-7.536h-.466a20.487 20.487 0 00-2.533-.066c-8.429.342-14.69 5.941-16.817 8.1-.456.406-.73.697-.79.747l.03.03a.175.175 0 01-.035.045l.902.753 6.306 5.805.294-.29.167-.181c1.433-1.335 6.048-5.184 11.458-5.254h.344c2.852.306 5.622 1.822 8.439 4.626 4.68 4.657 9.872 7.181 15.47 7.527h.465c.842.075 1.688.096 2.533.066 8.428-.342 14.69-5.937 16.817-8.094.44-.422.719-.708.775-.768" fill="#EFC825"/></svg>
